packages/kaspersky-hexa-ui-icons/src/iconsSVGs/16x12/FlagBb.svg

<svg width="16" height="12" viewBox="0 0 16 12" fill="none" xmlns="http://www.w3.org/2000/svg">
<g clip-path="url(#clip0_41812_2779)">
<mask id="mask0_41812_2779" style="mask-type:luminance" maskUnits="userSpaceOnUse" x="0" y="0" width="16" height="12">
<rect width="16" height="12" rx="2" fill="white"/>
</mask>
<g mask="url(#mask0_41812_2779)">
<rect width="16" height="12" fill="url(#paint0_linear_41812_2779)"/>
<rect x="7.61902" width="8.38095" height="12" fill="#08379D"/>
<path fill-rule="evenodd" clip-rule="evenodd" d="M0 12H5.33333V0H0V12Z" fill="#08379D"/>
<path fill-rule="evenodd" clip-rule="evenodd" d="M5.33337 12H10.6667V0H5.33337V12Z" fill="#FFCC50"/>
<path fill-rule="evenodd" clip-rule="evenodd" d="M7.72988 4.04067C7.86268 3.83563 8.16364 3.83837 8.29269 4.04579L8.57453 4.4988C8.6562 4.63007 8.5618 4.79997 8.4072 4.79997C8.29098 4.79997 8.2 4.90003 8.21102 5.01573L8.35634 6.54161C8.37029 6.6881 8.49333 6.79997 8.64048 6.79997C8.71807 6.79997 8.7923 6.76839 8.84611 6.71251L9.04966 6.50108C9.10945 6.43897 9.14285 6.35611 9.14285 6.26989V5.71334C9.14285 5.64056 9.11486 5.57058 9.06467 5.51789C8.92272 5.36883 8.98199 5.12294 9.17627 5.05494L9.36824 4.98776C9.60854 4.90365 9.85061 5.1091 9.80669 5.35989L9.57247 6.69709C9.56074 6.76407 9.5288 6.82587 9.48094 6.87418L8.8408 7.52034C8.79031 7.5713 8.72154 7.59997 8.6498 7.59997C8.50132 7.59997 8.38095 7.72034 8.38095 7.86883V8.06664C8.38095 8.25074 8.23171 8.39997 8.04762 8.39997H7.95238C7.76828 8.39997 7.61904 8.25074 7.61904 8.06664V7.86664C7.61904 7.71937 7.49965 7.59997 7.35238 7.59997C7.2794 7.59997 7.2096 7.57006 7.15927 7.51722L6.54389 6.87106C6.49969 6.82465 6.46981 6.76649 6.45782 6.70354L6.20343 5.36798C6.15538 5.11572 6.39861 4.90616 6.64099 4.99099L6.82372 5.05494C7.018 5.12294 7.07727 5.36883 6.93532 5.51789C6.88513 5.57058 6.85714 5.64056 6.85714 5.71334V6.26989C6.85714 6.35611 6.89054 6.43897 6.95034 6.50108L7.15388 6.71251C7.20769 6.76839 7.28193 6.79997 7.35951 6.79997C7.50666 6.79997 7.6297 6.6881 7.64365 6.54161L7.78925 5.01285C7.80012 4.89869 7.71035 4.79997 7.59568 4.79997C7.44155 4.79997 7.3487 4.6292 7.43249 4.49984L7.72988 4.04067Z" fill="#262626"/>
</g>
</g>
<defs>
<linearGradient id="paint0_linear_41812_2779" x1="0" y1="0" x2="0" y2="12" gradientUnits="userSpaceOnUse">
<stop stop-color="#1132C7"/>
<stop offset="1" stop-color="#0522A5"/>
</linearGradient>
<clipPath id="clip0_41812_2779">
<rect width="16" height="12" fill="white"/>
</clipPath>
</defs>
</svg>

<svg xmlns="http://www.w3.org/2000/svg" width="16" height="12" fill="none" viewBox="0 0 16 12"><g clip-path="url(#a)"><mask id="b" width="16" height="12" x="0" y="0" maskUnits="userSpaceOnUse" style="mask-type:luminance"><rect width="16" height="12" fill="#fff" rx="2"/></mask><g mask="url(#b)"><path fill="url(#c)" d="M0 0h16v12H0z"/><path fill="#08379d" d="M7.619 0H16v12H7.619z"/><path fill="#08379d" fill-rule="evenodd" d="M0 12h5.3333V0H0z" clip-rule="evenodd"/><path fill="#ffcc50" fill-rule="evenodd" d="M5.3334 12h5.3333V0H5.3334z" clip-rule="evenodd"/><path fill="#262626" fill-rule="evenodd" d="M7.7299 4.0407c.1328-.205.4337-.2023.5628.005l.2818.4531c.0817.1313-.0127.3012-.1673.3012a.197.197 0 0 0-.1962.2157l.1453 1.526a.2854.2854 0 0 0 .4898.1708l.2036-.2114a.333.333 0 0 0 .0931-.2312v-.5566a.283.283 0 0 0-.0781-.1954c-.142-.149-.0827-.395.1116-.463l.192-.0671c.2402-.0842.4823.1213.4384.372l-.2342 1.3373a.333.333 0 0 1-.0916.177l-.6401.6462a.27.27 0 0 1-.191.0797.269.269 0 0 0-.2689.2688v.1978a.3333.3333 0 0 1-.3333.3334h-.0952a.3333.3333 0 0 1-.3334-.3334v-.2A.2667.2667 0 0 0 7.3524 7.6a.267.267 0 0 1-.1931-.0828l-.6154-.6461a.333.333 0 0 1-.086-.1676L6.2033 5.368c-.048-.2523.1952-.4618.4376-.377l.1827.064c.1943.068.2536.3138.1116.4629a.283.283 0 0 0-.0782.1954V6.27c0 .0862.0334.169.0932.2312l.2036.2114a.2855.2855 0 0 0 .4897-.1709l.1456-1.5287a.1944.1944 0 0 0-.1935-.213c-.1541 0-.247-.1707-.1632-.3z" clip-rule="evenodd"/></g></g><defs><linearGradient id="c" x1="0" x2="0" y1="0" y2="12" gradientUnits="userSpaceOnUse"><stop stop-color="#1132c7"/><stop offset="1" stop-color="#0522a5"/></linearGradient><clipPath id="a"><path fill="#fff" d="M0 0h16v12H0z"/></clipPath></defs></svg>
